X:1
T:Confidence (Moore), LM
T:Arranged from W. Moore, before 1906
T:Confidence (Moore), LM
T:Public Domain
C:Arranged from W. Moore, before 1906
Z:Public Domain
%%score ( 1 2 ) ( 3 4 )
L:1/8
M:4/2
K:G
V:1 treble 
V:2 treble 
V:3 bass 
V:4 bass 
V:1
 [GB]4 [GB]2 [FA]2 G4 [DB]4 | ([CE]2 [EA]2) (G2 F2) [DG]6 [DB]2 | %2
 [DA]4 [EA]4 (A2 d2) ([DA]2 [EG]2) | [DF]4 [^CE]4 D6 D2 | [FB]6 [FA]2 G6 [DG]2 | %5
 [Gd]6 [Ac]2 [GB]4 G4 | [Ge]4 [Fd]4 [Ec]4 [DB]4 | (B2 A2) (G2 F2) [DG]8 |] %8
V:2
 x8 G4 x4 | x4 D4 x8 | x8 D4 x4 | x8 D6 D2 | x8 G6 x2 | x12 G4 | x16 | E4 D4 x8 |] %8
V:3
 [G,D]4 [G,D]2 [D,C]2 [E,B,]4 [B,,G,]4 | (G,2 C2) (B,2 A,2) [G,,B,]6 G,2 | %2
 [D,F,]4 [^C,G,]4 [D,F,]4 ([F,A,]2 [G,B,]2) | A,4 (A,2 G,2) [D,F,]6 [D,D]2 | %4
 D6 [CD]2 ([B,D]4 [A,C]2) [G,B,]2 | [E,B,]6 [F,D]2 [G,D]4 [G,B,]4 | %6
 [C,C]4 [D,A,]4 ([E,G,]2 [F,A,]2) (B,2 D2) | (D2 C2) (B,2 A,2) [G,,B,]8 |] %8
V:4
 x16 | C,4 D,4 x4 G,2 x2 | x16 | A,4 A,,4 x8 | D6 x10 | x16 | x12 G,4 | C,4 D,4 x8 |] %8

